X:1
T:Title
%%score 1 2 3
L:1/8
M:3/2
K:C
V:1 treble-8 nm="Part_1"
V:2 treble-8 nm="Part_2"
V:3 treble-8 nm="Part_3"
V:1
 d8 ^c4 | d2 e2 f4 e4 | g2 f2 e4 d4 | f2 e3 d d2 ^c3 B | d4 z4 f4 | e2 a4 g3 ffe | g6 f2 e4 | %7
 d4 f6 e2 | c2 d4 c2 B3 A | c4 z4 c4 | d6 f2 e2 d2 | f4 e2 c2 d4 | e2 f2 d2 g2 f2 e2 | g4 z4 c4 | %14
 d4 ^f4 g4 | f4 f4 e4 | d4 e6 d2 | d6 ^c2 c2 B2 | d12 |] %19
V:2
 d2 B2 A2 A2 G4 | A4 B4 ^c4 | A4 z4 B4 | c2 B2 A4 G4 | A4 F4 D4 | G4 z2 d2 c3 B | d4 z4 c4 | %7
 A8 A4 | G2 A4 G2 F2 E2 | G4 z2 E2 F4 | D2 G2 c6 B2 | c4 z4 G4 | A2 D2 G2 G2 D4 | d8 z4 | %14
 G4 ^c4 d2 B2 | A4 z2 c2 B4 | A4 B4 c2 B2 | A4 A2 B2 ^G4 | A12 |] %19
V:3
 G4 F2 D2 E4 | D8 ^C4 | z2 D2 E2 F2 G4 | A2 G2 F2 D2 E4 | D8 d4 | c4 B2 G2 A4 | G8 C4 | D8 F4 | %8
 E2 F4 E2 D4 | C4 F2 G2 A4 | _B4 A4 G4 | F4 A4 B4 | c2 d2 B2 G2 A4 | G8 A4 | B4 A4 G4 | D4 A4 G4 | %16
 D4 G8 | F2 D2 F2 G2 E4 | D12 |] %19

